X:1
T:Lyte (Holbrook), 12.4.12.10
T:Lyte (Holbrook), 12.4.12.10
T:Joseph Perry Holbrook, 1868
T:Public Domain Courtesy of the Cyber Hymnal™
C:Joseph Perry Holbrook, 1868
Z:Public Domain
Z:Courtesy of the Cyber Hymnal™
%%score ( 1 2 ) 3
L:1/8
Q:1/4=107
M:4/4
K:C
V:1 treble 
V:2 treble 
V:3 bass 
V:1
 [CE]4 [DF]2 [FA]2 | [EG]3 [DF] [CE]2 z2 | (G2 c2) [Ge]3 [Fd] | [FA]3 [FB] [EG]2 z2 | %4
 (G2 c2) [Fd]3 [Fe] | [Ec]6 z2 | [Fc]4 [Af]2 [FA]2 | [FA]3 [EG] [EG]2 z2 | [Fc]4 [Af]2 [FA]2 | %9
 [FA]3 [EG] [EG]2 z2 | [DG]4 [FB]2 [Fd]2 | [Ff]3 [FB] !fermata![Ec]4 | [FA]4 [EG]3 [FG] | %13
 [EG]6 z2 |] %14
V:2
 x8 | x8 | E4 x4 | x8 | E4 x4 | x8 | x8 | x8 | x8 | x8 | x8 | x8 | x8 | x8 |] %14
V:3
 C,8 | C,6 z2 | C,8 | C,6 z2 | [C,C]4 [G,B,]3 [G,B,] | [C,C]6 z2 | [F,,F,A,]4 [F,C]2 [F,C]2 | %7
 [C,C]3 [C,C] [C,C]2 z2 | [F,A,]4 [F,C]2 [F,C]2 | [C,C]3 [C,C] [C,C]2 z2 | [G,B,]4 [G,D]2 [G,D]2 | %11
 [G,B,]3 [^G,D] !fermata![A,C]4 | [F,C]4 [G,C]3 [G,,B,] | [C,C]6 z2 |] %14

